images/product-types/action_camera.svg

<svg width="71" height="87" viewBox="0 0 71 87" fill="none" xmlns="http://www.w3.org/2000/svg">
<path d="M53.349 1.49C53.349 0.754 52.771 0 52.038 0H9.053C8.32 0 7.672 0.754 7.672 1.49V5.012H53.348L53.349 1.49Z" fill="#363636"/>
<path d="M54.202 81.809H44.605V71.426H37.647V73.933H18.774C18.237 72.679 17.017 71.785 15.593 71.785H3.559C1.642 71.784 0 73.387 0 75.311V78.329C0 80.253 1.642 81.809 3.559 81.809H15.594C17.105 81.809 18.386 80.913 18.863 79.483H37.648V81.809H28.13C27.597 81.809 27.12 82.246 27.12 82.781V85.953C27.12 86.488 27.598 87.001 28.13 87.001H54.202C54.735 87.001 55.132 86.488 55.132 85.953V82.78C55.132 82.245 54.735 81.809 54.202 81.809Z" fill="#363636"/>
<path d="M60.666 12.39C59.805 9.453 57.099 7.34 53.895 7.34H7.148C3.25 7.34 0 10.449 0 14.361V61.261C0 65.173 3.25 68.382 7.148 68.382H53.895C57.793 68.382 61.021 65.173 61.021 61.261V50.915C67.087 46.711 71.022 39.704 71.022 31.751C71.021 23.672 66.89 16.57 60.666 12.39ZM12.238 62.151C8.979 62.151 6.337 59.501 6.337 56.23C6.337 52.96 8.979 50.308 12.238 50.308C15.497 50.308 18.14 52.96 18.14 56.23C18.14 59.501 15.497 62.151 12.238 62.151ZM18.199 29.546C18.199 30.332 17.564 30.968 16.781 30.968H7.841C7.058 30.968 6.423 30.331 6.423 29.546V15.386C6.423 14.6 7.058 13.963 7.841 13.963H16.78C17.563 13.963 18.198 14.6 18.198 15.386L18.199 29.546ZM47.762 51.858C36.686 51.858 27.705 42.848 27.705 31.735C27.705 20.622 36.685 11.611 47.762 11.611C58.839 11.611 67.82 20.621 67.82 31.735C67.82 42.849 58.839 51.858 47.762 51.858Z" fill="#363636"/>
<path d="M47.762 43.964C54.4932 43.964 59.95 38.4889 59.95 31.735C59.95 24.9811 54.4932 19.506 47.762 19.506C41.0308 19.506 35.574 24.9811 35.574 31.735C35.574 38.4889 41.0308 43.964 47.762 43.964Z" fill="#363636"/>
<path d="M31.562 33.171C32.3545 33.171 32.997 32.5285 32.997 31.736C32.997 30.9435 32.3545 30.301 31.562 30.301C30.7695 30.301 30.127 30.9435 30.127 31.736C30.127 32.5285 30.7695 33.171 31.562 33.171Z" fill="#363636"/>
<path d="M63.963 33.171C64.7555 33.171 65.398 32.5285 65.398 31.736C65.398 30.9435 64.7555 30.301 63.963 30.301C63.1705 30.301 62.528 30.9435 62.528 31.736C62.528 32.5285 63.1705 33.171 63.963 33.171Z" fill="#363636"/>
<path d="M39.109 19.429C39.9015 19.429 40.544 18.7865 40.544 17.994C40.544 17.2015 39.9015 16.559 39.109 16.559C38.3165 16.559 37.674 17.2015 37.674 17.994C37.674 18.7865 38.3165 19.429 39.109 19.429Z" fill="#363636"/>
<path d="M56.415 46.912C57.2048 46.912 57.845 46.2691 57.845 45.476C57.845 44.6829 57.2048 44.04 56.415 44.04C55.6252 44.04 54.985 44.6829 54.985 45.476C54.985 46.2691 55.6252 46.912 56.415 46.912Z" fill="#363636"/>
<path d="M55.697 19C56.4895 19 57.132 18.3575 57.132 17.565C57.132 16.7725 56.4895 16.13 55.697 16.13C54.9045 16.13 54.262 16.7725 54.262 17.565C54.262 18.3575 54.9045 19 55.697 19Z" fill="#363636"/>
<path d="M39.828 47.341C40.6205 47.341 41.263 46.6985 41.263 45.906C41.263 45.1135 40.6205 44.471 39.828 44.471C39.0355 44.471 38.393 45.1135 38.393 45.906C38.393 46.6985 39.0355 47.341 39.828 47.341Z" fill="#363636"/>
</svg>

<svg width="71" height="87" fill="none" xmlns="http://www.w3.org/2000/svg"><path d="M53.349 1.49c0-.736-.578-1.49-1.311-1.49H9.053C8.32 0 7.672.754 7.672 1.49v3.522h45.676l.001-3.522ZM54.202 81.809h-9.597V71.426h-6.958v2.507H18.774c-.537-1.254-1.757-2.148-3.181-2.148H3.559C1.642 71.784 0 73.387 0 75.311v3.018c0 1.924 1.642 3.48 3.559 3.48h12.035c1.511 0 2.792-.896 3.269-2.326h18.785v2.326H28.13c-.533 0-1.01.437-1.01.972v3.172c0 .535.478 1.048 1.01 1.048h26.072c.533 0 .93-.513.93-1.048V82.78c0-.535-.397-.971-.93-.971ZM60.666 12.39a7.037 7.037 0 0 0-6.771-5.05H7.148C3.25 7.34 0 10.449 0 14.361v46.9c0 3.912 3.25 7.121 7.148 7.121h46.747c3.898 0 7.126-3.209 7.126-7.121V50.915a23.228 23.228 0 0 0 10.001-19.164c-.001-8.079-4.132-15.181-10.356-19.361ZM12.238 62.151c-3.259 0-5.901-2.65-5.901-5.921 0-3.27 2.642-5.922 5.901-5.922s5.902 2.652 5.902 5.922c0 3.271-2.643 5.921-5.902 5.921Zm5.961-32.605a1.42 1.42 0 0 1-1.418 1.422h-8.94a1.42 1.42 0 0 1-1.418-1.422v-14.16a1.42 1.42 0 0 1 1.418-1.423h8.939a1.42 1.42 0 0 1 1.418 1.423l.001 14.16Zm29.563 22.312c-11.076 0-20.057-9.01-20.057-20.123 0-11.113 8.98-20.124 20.057-20.124 11.077 0 20.058 9.01 20.058 20.124 0 11.114-8.981 20.123-20.058 20.123Z" fill="#363636"/><path d="M47.762 43.964c6.731 0 12.188-5.475 12.188-12.229s-5.457-12.229-12.188-12.229c-6.731 0-12.188 5.475-12.188 12.229s5.457 12.229 12.188 12.229ZM31.562 33.171a1.435 1.435 0 1 0 0-2.87 1.435 1.435 0 0 0 0 2.87ZM63.963 33.171a1.435 1.435 0 1 0 0-2.87 1.435 1.435 0 0 0 0 2.87ZM39.109 19.429a1.435 1.435 0 1 0 0-2.87 1.435 1.435 0 0 0 0 2.87ZM56.415 46.912c.79 0 1.43-.643 1.43-1.436 0-.793-.64-1.436-1.43-1.436-.79 0-1.43.643-1.43 1.436 0 .793.64 1.436 1.43 1.436ZM55.697 19a1.435 1.435 0 1 0 0-2.87 1.435 1.435 0 0 0 0 2.87ZM39.828 47.341a1.435 1.435 0 1 0 0-2.87 1.435 1.435 0 0 0 0 2.87Z" fill="#363636"/></svg>
